packages/components/icon/src/assets/icons/preview.svg

<svg width="24" height="24" viewBox="0 0 24 24" fill="none" xmlns="http://www.w3.org/2000/svg">
<path fill-rule="evenodd" clip-rule="evenodd" d="M20.5289 18.8151C20.5289 19.0176 20.4638 19.1839 20.3337 19.314L19.314 20.3337C19.1839 20.4783 19.0176 20.5506 18.8151 20.5506C18.6126 20.5506 18.439 20.4783 18.2944 20.3337L14.9318 16.9711C13.6302 17.8388 12.1984 18.2727 10.6364 18.2727C9.24793 18.2727 7.96798 17.9329 6.79649 17.2531C5.62499 16.5733 4.69938 15.6477 4.01963 14.4762C3.33987 13.3047 3 12.0248 3 10.6364C3 9.26239 3.34349 7.98968 4.03048 6.81818C4.71746 5.64669 5.64307 4.71746 6.80733 4.03048C7.9716 3.34349 9.24793 3 10.6364 3C12.0103 3 13.2831 3.34349 14.4545 4.03048C15.626 4.71746 16.5553 5.64669 17.2423 6.81818C17.9292 7.98968 18.2727 9.26239 18.2727 10.6364C18.2727 12.1984 17.8316 13.6302 16.9494 14.9318L20.3337 18.3161C20.4638 18.4752 20.5289 18.6415 20.5289 18.8151ZM10.6364 16.3636C11.6777 16.3636 12.6358 16.1069 13.5108 15.5935C14.3859 15.0801 15.0801 14.3859 15.5935 13.5108C16.1069 12.6358 16.3636 11.6777 16.3636 10.6364C16.3636 9.6095 16.1069 8.65496 15.5935 7.77273C15.0801 6.89049 14.3859 6.19267 13.5108 5.67924C12.6358 5.1658 11.6777 4.90909 10.6364 4.90909C9.59504 4.90909 8.63688 5.1658 7.76188 5.67924C6.88688 6.19267 6.19267 6.89049 5.67924 7.77273C5.1658 8.65496 4.90909 9.6095 4.90909 10.6364C4.90909 11.6777 5.1658 12.6358 5.67924 13.5108C6.19267 14.3859 6.88688 15.0801 7.76188 15.5935C8.63688 16.1069 9.59504 16.3636 10.6364 16.3636ZM7.55579 7.01343C7.97521 6.65186 8.44886 6.36984 8.97676 6.16736C9.50465 5.96487 10.0578 5.86364 10.6364 5.86364C11.2149 5.86364 11.7681 5.96487 12.296 6.16736C12.8239 6.36984 13.2975 6.65186 13.7169 7.01343H7.55579ZM6.40599 8.44525H14.8667C15.0981 8.86467 15.2572 9.34194 15.344 9.87707H5.92872C6.0155 9.34194 6.17459 8.86467 6.40599 8.44525ZM5.90702 11.3089H15.3657C15.3079 11.7862 15.1632 12.2634 14.9318 12.7407H6.34091C6.1095 12.2634 5.96488 11.7862 5.90702 11.3089ZM10.6364 15.4091C10.0289 15.4091 9.44318 15.3006 8.87913 15.0837C8.31508 14.8667 7.82335 14.563 7.40393 14.1725H13.8471C13.4132 14.563 12.9215 14.8667 12.3719 15.0837C11.8223 15.3006 11.2438 15.4091 10.6364 15.4091Z" fill="currentColor"/>
</svg>

<svg viewBox="0 0 24 24" fill="none" xmlns="http://www.w3.org/2000/svg"><path fill-rule="evenodd" clip-rule="evenodd" d="M20.529 18.815a.676.676 0 0 1-.195.499l-1.02 1.02a.641.641 0 0 1-.499.217.71.71 0 0 1-.52-.217l-3.363-3.363a7.582 7.582 0 0 1-4.296 1.302 7.516 7.516 0 0 1-3.84-1.02 7.523 7.523 0 0 1-2.776-2.777A7.516 7.516 0 0 1 3 10.636c0-1.374.343-2.646 1.03-3.818A7.716 7.716 0 0 1 6.807 4.03 7.398 7.398 0 0 1 10.637 3c1.373 0 2.646.343 3.817 1.03a7.69 7.69 0 0 1 2.788 2.788 7.416 7.416 0 0 1 1.03 3.818 7.494 7.494 0 0 1-1.323 4.296l3.385 3.384c.13.16.195.326.195.5Zm-9.893-2.451c1.042 0 2-.257 2.875-.77a5.75 5.75 0 0 0 2.083-2.083c.513-.875.77-1.833.77-2.875a5.596 5.596 0 0 0-.77-2.863 5.724 5.724 0 0 0-2.083-2.094 5.577 5.577 0 0 0-2.875-.77c-1.041 0-2 .257-2.874.77a5.725 5.725 0 0 0-2.083 2.094 5.595 5.595 0 0 0-.77 2.863c0 1.042.257 2 .77 2.875a5.75 5.75 0 0 0 2.083 2.083 5.58 5.58 0 0 0 2.874.77Zm-3.08-9.35a4.78 4.78 0 0 1 1.42-.847 4.594 4.594 0 0 1 1.66-.303c.579 0 1.132.1 1.66.303a4.779 4.779 0 0 1 1.42.846h-6.16Zm-1.15 1.431h8.46c.232.42.391.897.478 1.432H5.929a4.397 4.397 0 0 1 .477-1.432Zm-.499 2.864h9.459a4.52 4.52 0 0 1-.434 1.432H6.34a4.52 4.52 0 0 1-.434-1.432Zm4.73 4.1a4.855 4.855 0 0 1-1.758-.325 4.523 4.523 0 0 1-1.475-.912h6.443a4.836 4.836 0 0 1-1.475.912 4.685 4.685 0 0 1-1.736.325Z" fill="currentColor"/></svg>
